src/assets/images/github.svg

<svg width="40" height="40" viewBox="0 0 40 40" fill="currentColor" xmlns="http://www.w3.org/2000/svg">
<path d="M20 0C8.95 0 0 8.955 0 20C0 28.8383 5.73 36.3333 13.675 38.975C14.675 39.1633 15.0417 38.545 15.0417 38.0133C15.0417 37.5383 15.025 36.28 15.0167 34.6133C9.45333 35.82 8.28 31.93 8.28 31.93C7.37 29.6217 6.055 29.005 6.055 29.005C4.24333 27.765 6.195 27.79 6.195 27.79C8.20333 27.93 9.25833 29.85 9.25833 29.85C11.0417 32.9083 13.94 32.025 15.0833 31.5133C15.2633 30.22 15.7783 29.3383 16.35 28.8383C11.9083 28.3383 7.24 26.6183 7.24 18.955C7.24 16.7717 8.015 14.9883 9.29833 13.5883C9.07333 13.0833 8.39833 11.05 9.47333 8.295C9.47333 8.295 11.1483 7.75833 14.9733 10.345C16.5733 9.9 18.2733 9.68 19.9733 9.67C21.6733 9.68 23.3733 9.9 24.9733 10.345C28.7733 7.75833 30.4483 8.295 30.4483 8.295C31.5233 11.05 30.8483 13.0833 30.6483 13.5883C31.9233 14.9883 32.6983 16.7717 32.6983 18.955C32.6983 26.6383 28.0233 28.33 23.5733 28.8217C24.2733 29.4217 24.9233 30.6483 24.9233 32.5217C24.9233 35.1983 24.8983 37.3483 24.8983 37.9983C24.8983 38.5233 25.2483 39.1483 26.2733 38.9483C34.275 36.325 40 28.825 40 20C40 8.955 31.045 0 20 0Z"/>
</svg>

<svg width="40" height="40" viewBox="0 0 40 40" fill="currentColor" xmlns="http://www.w3.org/2000/svg"><path d="M20 0C8.95 0 0 8.955 0 20c0 8.838 5.73 16.333 13.675 18.975 1 .188 1.367-.43 1.367-.962 0-.475-.017-1.733-.025-3.4C9.453 35.82 8.28 31.93 8.28 31.93c-.91-2.308-2.225-2.925-2.225-2.925-1.812-1.24.14-1.215.14-1.215 2.008.14 3.063 2.06 3.063 2.06 1.784 3.058 4.682 2.175 5.825 1.663.18-1.293.695-2.175 1.267-2.675-4.442-.5-9.11-2.22-9.11-9.883 0-2.183.775-3.967 2.058-5.367-.225-.505-.9-2.538.175-5.293 0 0 1.675-.537 5.5 2.05 1.6-.445 3.3-.665 5-.675 1.7.01 3.4.23 5 .675 3.8-2.587 5.475-2.05 5.475-2.05 1.075 2.755.4 4.788.2 5.293 1.275 1.4 2.05 3.184 2.05 5.367 0 7.683-4.675 9.375-9.125 9.867.7.6 1.35 1.826 1.35 3.7 0 2.676-.025 4.826-.025 5.476 0 .525.35 1.15 1.375.95C34.275 36.325 40 28.825 40 20 40 8.955 31.045 0 20 0"/></svg>
